X:142
T: Ne búsuljon senki menyecskéje...
M: 2/4
L: 1/4
K: Eb
e2 | g f/e/ | d c | 
f/e/c | e d/c/ | B F | 
f/e/c | e d/c/ | B c | 
F A | c B/A/ | G G | 

